poi/svg/2404.svg

<?xml version="1.0" encoding="UTF-8" standalone="no"?>
<svg
   xmlns:dc="http://purl.org/dc/elements/1.1/"
   xmlns:cc="http://creativecommons.org/ns#"
   xmlns:rdf="http://www.w3.org/1999/02/22-rdf-syntax-ns#"
   xmlns:svg="http://www.w3.org/2000/svg"
   xmlns="http://www.w3.org/2000/svg"
   xmlns:sodipodi="http://sodipodi.sourceforge.net/DTD/sodipodi-0.dtd"
   xmlns:inkscape="http://www.inkscape.org/namespaces/inkscape"
   inkscape:version="1.0 (4035a4fb49, 2020-05-01)"
   sodipodi:docname="2404.svg"
   id="svg20"
   version="1.2"
   viewBox="0 0 42.519639 42.519639"
   height="14.999999mm"
   width="14.999999mm">
  <metadata
     id="metadata24">
    <rdf:RDF>
      <cc:Work
         rdf:about="">
        <dc:format>image/svg+xml</dc:format>
        <dc:type
           rdf:resource="http://purl.org/dc/dcmitype/StillImage" />
        <dc:title>Qt SVG Document</dc:title>
      </cc:Work>
    </rdf:RDF>
  </metadata>
  <sodipodi:namedview
     inkscape:current-layer="svg20"
     inkscape:window-maximized="0"
     inkscape:window-y="0"
     inkscape:window-x="0"
     inkscape:cy="28.346482"
     inkscape:cx="28.346482"
     inkscape:zoom="5.8410537"
     showgrid="false"
     id="namedview22"
     inkscape:window-height="480"
     inkscape:window-width="1034"
     inkscape:pageshadow="2"
     inkscape:pageopacity="0"
     guidetolerance="10"
     gridtolerance="10"
     objecttolerance="10"
     borderopacity="1"
     bordercolor="#666666"
     pagecolor="#ffffff" />
  <title
     id="title2">Qt SVG Document</title>
  <desc
     id="desc4">Generated with Qt</desc>
  <defs
     id="defs6" />
  <g
     transform="translate(5.25984,5.25984)"
     id="g18"
     stroke-linejoin="bevel"
     stroke-linecap="square"
     fill-rule="evenodd"
     stroke-width="1"
     stroke="#000000"
     fill="none">
    <g
       id="g10"
       font-style="normal"
       font-weight="400"
       font-size="7.8px"
       font-family="'MS Shell Dlg 2'"
       stroke="none"
       fill-opacity="1"
       fill="#ec1d24">
      <path
         id="path8"
         d="M 37.2598,16 C 37.2598,27.7415 27.7415,37.2598 16,37.2598 4.25851,37.2598 -5.25984,27.7415 -5.25984,16 -5.25984,4.25851 4.25851,-5.25984 16,-5.25984 27.7415,-5.25984 37.2598,4.25851 37.2598,16"
         fill-rule="evenodd"
         vector-effect="non-scaling-stroke" />
    </g>
    <g
       id="g14"
       font-style="normal"
       font-weight="400"
       font-size="7.8px"
       font-family="'MS Shell Dlg 2'"
       transform="translate(16,12.0315)"
       stroke="none"
       fill-opacity="0.94902"
       fill="#ffffff">
      <path
         id="path12"
         d="M 3.74951,11.8364 H 2.97266 v 1.5957 H 1.60791 V 7.93115 C 1.60791,7.52523 1.45744,7.17179 1.15649,6.87085 0.85555,6.56991 0.488118,6.41943 0.0541992,6.41943 -0.351725,6.41943 -0.70516,6.56991 -1.0061,6.87085 -1.30705,7.17179 -1.45752,7.52523 -1.45752,7.93115 v 5.50095 h -1.36475 v -1.5957 h -0.77685 v 0.273 H -11.9976 V -0.929199 c 0,-0.363931 0.1295,-0.675371 0.3885,-0.934331 0.2589,-0.25895 0.5634,-0.38842 0.9133,-0.38842 h 2.83447 L -8.30225,-3.55371 0.0541992,-8.23584 8.43164,-3.55371 8.01172,-2.25195 h 2.83448 c 0.3359,0 0.6334,0.12947 0.8923,0.38842 0.259,0.25896 0.3885,0.5704 0.3885,0.934331 V 12.1094 H 3.74951 v -0.273 M 5.72314,-0.0683594 H 2.97266 V 3.62695 H 5.72314 V -0.0683594 M 6.98291,3.62695 H 9.7334 V -0.0683594 H 6.98291 V 3.62695 m 0,5.60596 H 9.7334 V 5.47461 H 6.98291 v 3.7583 M -6.83252,5.47461 h -2.75049 v 3.7583 h 2.75049 v -3.7583 m 0,-5.5429694 H -9.58301 V 3.62695 h 2.75049 V -0.0683594 M -2.82227,5.47461 h -2.75048 v 3.7583 h 2.75048 v -3.7583 m 0,-5.5429694 H -5.57275 V 3.62695 h 2.75048 V -0.0683594 M 6.87793,-2.94482 0.0541992,-6.76611 -6.74854,-2.94482 h 4.68213 c 0,-0.5739 0.20996,-1.06731 0.62989,-1.48023 0.41992,-0.41292 0.916826,-0.61938 1.4907192,-0.61938 0.6018878,0 1.1092908,0.20646 1.5222208,0.61938 0.41292,0.41292 0.61938,0.90633 0.61938,1.48023 H 6.87793 M 5.72314,9.23291 V 5.47461 H 2.97266 v 3.7583 h 2.75048 m 7.09666,3.17039 v 2.4146 H 3.74951 v -2.4146 h 9.07029 m -25.4892,0 h 9.07028 v 2.4146 h -9.07028 v -2.4146 m 9.84713,1.5117 h 5.79493 v 0.9029 H -2.82227 V 13.915"
         fill-rule="evenodd"
         vector-effect="none" />
    </g>
    <g
       id="g16"
       font-style="normal"
       font-weight="400"
       font-size="7.8px"
       font-family="'MS Shell Dlg 2'"
       stroke="none"
       fill-opacity="1"
       fill="#ec1d24" />
  </g>
</svg>

<?xml version="1.0" encoding="UTF-8" standalone="no"?>
<svg width="11.2889mm" height="11.2889mm"
 viewBox="0 0 32 32"
 xmlns="http://www.w3.org/2000/svg" xmlns:xlink="http://www.w3.org/1999/xlink"  version="1.2" baseProfile="tiny">
<title>Qt SVG Document</title>
<desc>Generated with Qt</desc>
<defs>
</defs>
<g fill="none" stroke="black" stroke-width="1" fill-rule="evenodd" stroke-linecap="square" stroke-linejoin="bevel" >

<g fill="#ec1d24" fill-opacity="1" stroke="none" transform="matrix(1,0,0,1,0,0)"
font-family="MS Shell Dlg 2" font-size="7.8" font-weight="400" font-style="normal" 
>
<path vector-effect="non-scaling-stroke" fill-rule="evenodd" d="M37.2598,16 C37.2598,27.7415 27.7415,37.2598 16,37.2598 C4.25851,37.2598 -5.25984,27.7415 -5.25984,16 C-5.25984,4.25851 4.25851,-5.25984 16,-5.25984 C27.7415,-5.25984 37.2598,4.25851 37.2598,16 "/>
</g>

<g fill="#ffffff" fill-opacity="0.94902" stroke="none" transform="matrix(1,0,0,1,16,12.0315)"
font-family="MS Shell Dlg 2" font-size="7.8" font-weight="400" font-style="normal" 
>
<path vector-effect="none" fill-rule="evenodd" d="M3.74951,11.8364 L2.97266,11.8364 L2.97266,13.4321 L1.60791,13.4321 L1.60791,7.93115 C1.60791,7.52523 1.45744,7.17179 1.15649,6.87085 C0.85555,6.56991 0.488118,6.41943 0.0541992,6.41943 C-0.351725,6.41943 -0.70516,6.56991 -1.0061,6.87085 C-1.30705,7.17179 -1.45752,7.52523 -1.45752,7.93115 L-1.45752,13.4321 L-2.82227,13.4321 L-2.82227,11.8364 L-3.59912,11.8364 L-3.59912,12.1094 L-11.9976,12.1094 L-11.9976,-0.929199 C-11.9976,-1.29313 -11.8681,-1.60457 -11.6091,-1.86353 C-11.3502,-2.12248 -11.0457,-2.25195 -10.6958,-2.25195 L-7.86133,-2.25195 L-8.30225,-3.55371 L0.0541992,-8.23584 L8.43164,-3.55371 L8.01172,-2.25195 L10.8462,-2.25195 C11.1821,-2.25195 11.4796,-2.12248 11.7385,-1.86353 C11.9975,-1.60457 12.127,-1.29313 12.127,-0.929199 L12.127,12.1094 L3.74951,12.1094 L3.74951,11.8364 M5.72314,-0.0683594 L2.97266,-0.0683594 L2.97266,3.62695 L5.72314,3.62695 L5.72314,-0.0683594 M6.98291,3.62695 L9.7334,3.62695 L9.7334,-0.0683594 L6.98291,-0.0683594 L6.98291,3.62695 M6.98291,9.23291 L9.7334,9.23291 L9.7334,5.47461 L6.98291,5.47461 L6.98291,9.23291 M-6.83252,5.47461 L-9.58301,5.47461 L-9.58301,9.23291 L-6.83252,9.23291 L-6.83252,5.47461 M-6.83252,-0.0683594 L-9.58301,-0.0683594 L-9.58301,3.62695 L-6.83252,3.62695 L-6.83252,-0.0683594 M-2.82227,5.47461 L-5.57275,5.47461 L-5.57275,9.23291 L-2.82227,9.23291 L-2.82227,5.47461 M-2.82227,-0.0683594 L-5.57275,-0.0683594 L-5.57275,3.62695 L-2.82227,3.62695 L-2.82227,-0.0683594 M6.87793,-2.94482 L0.0541992,-6.76611 L-6.74854,-2.94482 L-2.06641,-2.94482 C-2.06641,-3.51872 -1.85645,-4.01213 -1.43652,-4.42505 C-1.0166,-4.83797 -0.519694,-5.04443 0.0541992,-5.04443 C0.656087,-5.04443 1.16349,-4.83797 1.57642,-4.42505 C1.98934,-4.01213 2.1958,-3.51872 2.1958,-2.94482 L6.87793,-2.94482 M5.72314,9.23291 L5.72314,5.47461 L2.97266,5.47461 L2.97266,9.23291 L5.72314,9.23291 M12.8198,12.4033 L12.8198,14.8179 L3.74951,14.8179 L3.74951,12.4033 L12.8198,12.4033 M-12.6694,12.4033 L-3.59912,12.4033 L-3.59912,14.8179 L-12.6694,14.8179 L-12.6694,12.4033 M-2.82227,13.915 L2.97266,13.915 L2.97266,14.8179 L-2.82227,14.8179 L-2.82227,13.915"/>
</g>

<g fill="#ec1d24" fill-opacity="1" stroke="none" transform="matrix(1,0,0,1,0,0)"
font-family="MS Shell Dlg 2" font-size="7.8" font-weight="400" font-style="normal" 
>
</g>
</g>
</svg>
